X:1
T: Arkansas Traveller
M: C|
L: 1/8
K: D
|: DFED B,2 B,2 | A,2 B,2 D4 | E2 EE F2 F2 | EFED B,2 A,2  || 
   DFED B,2 B,2 | A,2 B,2 D4 | dcdA BdAG | FD E2 D4 :|
|: agfa gfeg | fedf e2 A2 | d2 d2 ef e2 | fedf e2 A2  || 
   agfa gfeg | fedf e2 A2 | dcdA BdAG | FD E2 D4 :|
%%%%%
